X:1
T:Cyprus, LM
T:Cyprus, LM
T:Arranged by Lowell Mason, 1844
T:Public Domain Courtesy of the Cyber Hymnal™
C:Arranged by Lowell Mason, 1844
Z:Public Domain
Z:Courtesy of the Cyber Hymnal™
%%score ( 1 2 ) ( 3 4 )
L:1/8
M:3/2
K:G
V:1 treble 
V:2 treble 
V:3 bass 
V:4 bass 
V:1
 [DG]2 [DG]2 [DG]2 | [EG]2 [EG]2 [EA]4 [DF]4 | [DG]6 [FA]2 [FA]2 [FA]2 | %3
 [GB]2 [EG]2 [DF]4 [^CE]4 x2 | !fermata!D4 z2 [^DF]2 [DF]2 [DF]2 | %5
 [EG]6 [FA]2 [FA]2 [FA]2 [GB]6 [DG]2 [DG]2 [DG]2 | [EG]2 [CE]2 [B,D]4 [DA]4 | %7
 [DG]6 D2 [DG]2 [DB]2 | [Gc]2 [Ge]2 [Fd]4 [DF]4 | !fermata![DG]6 x6 |] x6 |] %11
V:2
 x6 | x12 | x12 | x14 | ^D4 x8 | x24 | x12 | x6 D2 x4 | x12 | x12 |] x6 |] %11
V:3
 [G,B,]2 [G,B,]2 [G,B,]2 | [E,B,]2 [E,B,]2 [C,C]4 [D,A,]4 | [G,B,]6 [D,D]2 [D,D]2 [D,D]2 | %3
 [G,D]2 [G,,B,]2 A,6 z2 G,2 | !fermata![D,F,]4 z2 [B,,B,]2 [B,,B,]2 [B,,B,]2 | %5
 [E,B,]6 [D,D]2 [D,D]2 [D,D]2 x12 | [G,D]6 [B,,G,]2 [B,,G,]2 [B,,G,]2 | %7
 [C,G,]2 [C,G,]2 [D,G,]4 [D,C]4 | [G,B,]6 [G,B,]2 [G,B,]2 G,2 | [E,G,]2 [C,C]2 [D,A,]4 [D,A,]4 |] %10
 !fermata![G,,B,]6 |] %11
V:4
 x6 | x12 | x12 | x4 A,,4 A,,4 x2 | x12 | x24 | x12 | x12 | x10 G,2 | x12 |] x6 |] %11

